public/svg/mail-black.svg

<svg xmlns="http://www.w3.org/2000/svg" width="24" height="24" fill="none"><path fill="#000" d="M20 7.5c0-.825-.72-1.5-1.6-1.5H5.6C4.72 6 4 6.675 4 7.5v9c0 .825.72 1.5 1.6 1.5h12.8c.88 0 1.6-.675 1.6-1.5zm-1.6 0L12 11.242 5.6 7.5zm0 9H5.6V9l6.4 3.75L18.4 9z"/></svg>

<svg width="24" height="24" viewBox="0 0 24 24" fill="none" xmlns="http://www.w3.org/2000/svg">
<path d="M20 7.5C20 6.675 19.28 6 18.4 6H5.6C4.72 6 4 6.675 4 7.5V16.5C4 17.325 4.72 18 5.6 18H18.4C19.28 18 20 17.325 20 16.5V7.5ZM18.4 7.5L12 11.2425L5.6 7.5H18.4ZM18.4 16.5H5.6V9L12 12.75L18.4 9V16.5Z" fill="black"/>
</svg>
